img/header-tlgrm.svg

<svg width="24" height="24" viewBox="0 0 24 24" fill="none" xmlns="http://www.w3.org/2000/svg">
<g clip-path="url(#clip0)">
<path d="M0.414181 11.1956L6.28318 14.1206C6.51018 14.2326 6.77818 14.2246 6.99518 14.0976L12.2192 11.0606L9.05718 13.8626C8.89618 14.0056 8.80418 14.2096 8.80418 14.4246V21.2496C8.80418 21.9696 9.72318 22.2726 10.1542 21.7006L12.6912 18.3276L18.9652 21.9006C19.4052 22.1536 19.9692 21.8996 20.0712 21.3966L23.9842 1.89658C24.1012 1.31058 23.5182 0.832578 22.9762 1.05058L0.476181 9.82558C-0.127818 10.0616 -0.166818 10.9066 0.414181 11.1956ZM22.2442 2.94658L18.8052 20.0836L12.8602 16.6976C12.5362 16.5126 12.1192 16.5946 11.8892 16.8986L10.3042 19.0056V14.7616L18.8552 7.18558C19.5322 6.58658 18.7542 5.52158 17.9812 5.97558L6.59118 12.5976L2.59918 10.6086L22.2442 2.94658Z" fill="#101315"/>
</g>
<defs>
<clipPath id="clip0">
<rect width="24" height="24" fill="white"/>
</clipPath>
</defs>
</svg>

<svg width="24" height="24" fill="none" xmlns="http://www.w3.org/2000/svg"><g clip-path="url(#clip0)"><path d="M.414 11.196l5.87 2.925a.752.752 0 00.711-.023l5.224-3.037-3.162 2.802a.751.751 0 00-.253.562v6.825c0 .72.92 1.023 1.35.45l2.537-3.372 6.274 3.573a.75.75 0 001.106-.504l3.913-19.5a.75.75 0 00-1.008-.846L.476 9.826a.75.75 0 00-.062 1.37zm21.83-8.25l-3.439 17.138-5.945-3.386a.752.752 0 00-.97.2l-1.586 2.108v-4.244l8.551-7.576c.677-.6-.1-1.664-.874-1.21l-11.39 6.622-3.992-1.99 19.645-7.661z" fill="#101315"/></g><defs><clipPath id="clip0"><path fill="#fff" d="M0 0h24v24H0z"/></clipPath></defs></svg>
